libs/ui/packages/crypto-icons/src/svg/NEXO.svg

<svg width="24" height="24" viewBox="0 0 24 24" fill="none">
<path opacity="0.7" d="M8.0475 4.98713L16.0965 9.63038V14.3696L3.7905 7.26263L7.73925 4.98713C7.78713 4.95948 7.84145 4.94493 7.89675 4.94493C7.95204 4.94493 8.00636 4.95948 8.05425 4.98713" fill="#1A4199"/>
<path opacity="0.9" d="M16.0965 4.89338L11.9963 7.26337L16.0965 9.63037V4.89338Z" fill="#1A4199"/>
<path d="M16.0964 4.89338L20.0444 7.17038C20.0941 7.19726 20.1356 7.23699 20.1646 7.28541C20.1936 7.33384 20.2091 7.38917 20.2094 7.44563V16.7374L16.0964 14.3696V4.89338Z" fill="#1A4199"/>
<path opacity="0.9" d="M20.2013 16.7374L16.2533 19.0121C16.2049 19.0384 16.1508 19.0521 16.0958 19.0521C16.0408 19.0521 15.9866 19.0384 15.9383 19.0121L7.88928 14.3696V9.62362L20.2013 16.7374Z" fill="#1A4199"/>
<path opacity="0.6" d="M3.7905 7.26337V16.5536C3.79068 16.6102 3.80609 16.6657 3.83513 16.7143C3.86416 16.7628 3.90574 16.8027 3.9555 16.8296L7.90425 19.1066V9.62362L3.7905 7.26337Z" fill="#1A4199"/>
<path opacity="0.7" d="M7.89746 19.1059L11.9962 16.7374L7.89746 14.3696V19.1059Z" fill="#1A4199"/>
</svg>

<svg width="24" height="24" viewBox="0 0 24 24" fill="none"><path fill="#1a4199" d="m8.047 4.987 8.05 4.643v4.74L3.79 7.263l3.95-2.276a.32.32 0 0 1 .314 0" opacity=".7"/><path fill="#1a4199" d="m16.096 4.893-4.1 2.37 4.1 2.367z" opacity=".9"/><path fill="#1a4199" d="m16.096 4.893 3.948 2.277a.31.31 0 0 1 .165.276v9.291l-4.113-2.367z"/><path fill="#1a4199" d="m20.201 16.737-3.948 2.275a.33.33 0 0 1-.315 0L7.89 14.37V9.624z" opacity=".9"/><path fill="#1a4199" d="M3.79 7.263v9.29a.32.32 0 0 0 .165.277l3.95 2.277V9.624z" opacity=".6"/><path fill="#1a4199" d="m7.897 19.106 4.1-2.369-4.1-2.367z" opacity=".7"/></svg>
